X: 738
M: C|
L: 1/8
K: D
|:\
|:\
f2d2 fgaf | e2c2 efge | f2d2 fgaf | f2d2 fgaf |\
g2b2 f2a2 | e2c2 efge | fgaf efge | d2A2 F2A2 :|

